app/assets/v2/images/kudos/cellarius/Diamond.svg

<svg viewBox="0 0 110.9 128" xmlns="http://www.w3.org/2000/svg"><path d="m55.4 0-55.4 32v64l55.4 32 55.5-32v-64z" fill="#766a68"/><g fill="#df9079"><path d="m9.4 90.6v-53.2l46-26.6 46 26.6v53.1l-46 26.6zm-9.4-58.6v64l55.4 32 55.4-32v-64l-55.4-32z" opacity=".38"/><path d="m11.8 89.2v-50.4l43.7-25.2 43.7 25.2v50.4l-43.7 25.2zm43.6-78.3-46 26.6v53.1l46 26.6 46-26.6v-53.2z" opacity=".13"/><path d="m57.3 67.3v30.2l17.6-20z"/></g><path d="m53.5 67.3-17.6 10.2 17.6 20z" fill="#e6d9a5"/><path d="m62.5 62.1h22.6l-7.6-8.7z" fill="#df9079"/><path d="m62.5 65.9 15 8.7 7.6-8.7z" fill="#e6d9a5"/><path d="m48.4 65.9h-22.6l7.6 8.7z" fill="#df9079"/><path d="m48.4 62.1-15-8.7-7.7 8.7z" fill="#e6d9a5"/><path d="m53.5 30.5-17.6 20 17.6 10.2zm24.5 18.3 16.9-9.8-37.6-21.7v7.9zm-47.7 2.9-16.3-9.4v19.8h7.1zm50.3 24.6 16.2 9.4v-19.8h-7.1z" fill="#df9079"/><path d="m57.3 102.8v7.9l37.6-21.7-16.9-9.8zm0-42.1 17.6-10.2-17.6-20zm23.3-9 9.1 10.4h7.1v-19.8zm-27.1-26.5v-7.9l-37.6 21.7 16.9 9.8z" fill="#e6d9a5"/><path d="m32.8 79.2-16.9 9.8 37.6 21.7v-7.9z" fill="#df9079"/><path d="m21.1 65.9h-7.1v19.8l16.3-9.4z" fill="#e6d9a5"/><circle cx="55.4" cy="64" fill="#766a68" r="13.9"/><circle cx="55.4" cy="64" fill="#e6d9a5" r="3.7"/><circle cx="55.4" cy="64" fill="none" r="8.7" stroke="#df9079" stroke-miterlimit="10" stroke-width="3"/></svg>

<svg id="Layer_1" xmlns="http://www.w3.org/2000/svg" viewBox="0 0 110.9 128"><style>.st0{fill:#766a68}.st3{fill:#df9079}.st4{fill:#e6d9a5}</style><path class="st0" d="M55.4 0L0 32v64l55.4 32 55.5-32V32z"/><path d="M9.4 90.6V37.4l46-26.6 46 26.6v53.1l-46 26.6-46-26.5zM0 32v64l55.4 32 55.4-32V32L55.4 0 0 32z" opacity=".38" fill="#df9079"/><path class="st3" d="M11.8 89.2V38.8l43.7-25.2 43.7 25.2v50.4l-43.7 25.2-43.7-25.2zm43.6-78.3l-46 26.6v53.1l46 26.6 46-26.6V37.4l-46-26.5z" opacity=".13"/><path class="st3" d="M57.3 67.3v30.2l17.6-20z"/><path class="st4" d="M53.5 67.3L35.9 77.5l17.6 20z"/><path class="st3" d="M62.5 62.1h22.6l-7.6-8.7z"/><path class="st4" d="M62.5 65.9l15 8.7 7.6-8.7z"/><path class="st3" d="M48.4 65.9H25.8l7.6 8.7z"/><path class="st4" d="M48.4 62.1l-15-8.7-7.7 8.7z"/><path class="st3" d="M53.5 30.5l-17.6 20 17.6 10.2zM78 48.8L94.9 39 57.3 17.3v7.9zm-47.7 2.9L14 42.3v19.8h7.1zm50.3 24.6l16.2 9.4V65.9h-7.1z"/><path class="st4" d="M57.3 102.8v7.9L94.9 89 78 79.2zm0-42.1l17.6-10.2-17.6-20zm23.3-9l9.1 10.4h7.1V42.3zM53.5 25.2v-7.9L15.9 39l16.9 9.8z"/><path class="st3" d="M32.8 79.2L15.9 89l37.6 21.7v-7.9z"/><path class="st4" d="M21.1 65.9H14v19.8l16.3-9.4z"/><circle class="st0" cx="55.4" cy="64" r="13.9"/><circle class="st4" cx="55.4" cy="64" r="3.7"/><circle cx="55.4" cy="64" r="8.7" fill="none" stroke="#df9079" stroke-width="3" stroke-miterlimit="10"/></svg>
